X: 10727
T: Dr Flora MacAulay Of Carradale
R: jig
M: 6/8
K: Amajor
|:Acc c2B|Acc ecB|Aff f2e|Afe c2B|
Acc c2B|Acc ece|fcc ecB|1 A3 A2a:|2 A3 Ace||
|:a3 f2e|Afe c2B|Aff f2e|Afe c2e|
a3 f2e|Afe c2B|Aff ecB|1 A3 Ace:|2 A3 A2a||
|:ABB c3|ecB c2B|Aff A2B|Aff ecB|
ABB c3|ecB c2B|Aff ecB|1 A3 A2a:|2 A3 Ace||
|:a2f aee|fcc e2f|eAA f2c|eAA fec|
[1 a2f aee|fcc e2f|fcc ecB|A3 Ace:|
[2 a2f aee|fcc eff|fcc ecB|A3 A2||

